lib/flags/cn-china.svg

<svg xmlns="http://www.w3.org/2000/svg" fill="none" aria-hidden="true" viewBox="0 0 42 30"><g id="Country=CN - China, Size=sm (36x24)" filter="url(#filter0_dd_91_28936)"><g clip-path="url(#clip0_91_28936)"><g id="flag"><mask id="mask0_91_28936" width="36" height="24" x="3" y="2" maskUnits="userSpaceOnUse" style="mask-type:alpha"><rect id="mask" width="36" height="24" x="3" y="2" fill="white"/></mask><g mask="url(#mask0_91_28936)"><g id="contents"><path id="background" fill="#E31D1C" fill-rule="evenodd" d="M3 2H39V26H3V2Z" clip-rule="evenodd"/><g id="mark"><path id="Star 5" fill="#FECA00" fill-rule="evenodd" d="M19.8929 6.54838L18.7565 7.15821L19.0157 5.96818L18.0693 5.07756L19.3508 5.02941L19.8929 3.91821L20.4351 5.02941H21.7143L20.7701 5.96818L21.0544 7.15821L19.8929 6.54838Z" clip-rule="evenodd"/><path id="Star 5_2" fill="#FECA00" fill-rule="evenodd" d="M10.8949 11.6073L7.65401 13.1582L8.39324 10.1317L5.69434 7.86668L9.34881 7.74421L10.8949 4.91821L12.4411 7.74421H16.0893L13.3966 10.1317L14.2073 13.1582L10.8949 11.6073Z" clip-rule="evenodd"/><path id="Star 5_3" fill="#FECA00" fill-rule="evenodd" d="M22.1429 10.5484L21.0065 11.1582L21.2657 9.96818L20.3193 9.07756L21.6008 9.02941L22.1429 7.91821L22.6851 9.02941H23.9643L23.0201 9.96818L23.3044 11.1582L22.1429 10.5484Z" clip-rule="evenodd"/><path id="Star 5_4" fill="#FECA00" fill-rule="evenodd" d="M21.0179 14.5484L19.8815 15.1582L20.1407 13.9682L19.1943 13.0776L20.4758 13.0294L21.0179 11.9182L21.5601 13.0294H22.8393L21.8951 13.9682L22.1794 15.1582L21.0179 14.5484Z" clip-rule="evenodd"/><path id="Star 5_5" fill="#FECA00" fill-rule="evenodd" d="M17.6429 17.5484L16.5065 18.1582L16.7657 16.9682L15.8193 16.0776L17.1008 16.0294L17.6429 14.9182L18.1851 16.0294H19.4643L18.5201 16.9682L18.8044 18.1582L17.6429 17.5484Z" clip-rule="evenodd"/></g></g></g></g></g></g><defs><filter id="filter0_dd_91_28936" width="42" height="30" x="0" y="0" color-interpolation-filters="sRGB" filterUnits="userSpaceOnUse"><feFlood flood-opacity="0" result="BackgroundImageFix"/><feColorMatrix in="SourceAlpha" result="hardAlpha" values="0 0 0 0 0 0 0 0 0 0 0 0 0 0 0 0 0 0 127 0"/><feOffset dy="1"/><feGaussianBlur stdDeviation="1"/><feColorMatrix values="0 0 0 0 0.0627451 0 0 0 0 0.0941176 0 0 0 0 0.156863 0 0 0 0.06 0"/><feBlend in2="BackgroundImageFix" result="effect1_dropShadow_91_28936"/><feColorMatrix in="SourceAlpha" result="hardAlpha" values="0 0 0 0 0 0 0 0 0 0 0 0 0 0 0 0 0 0 127 0"/><feOffset dy="1"/><feGaussianBlur stdDeviation="1.5"/><feColorMatrix values="0 0 0 0 0.0627451 0 0 0 0 0.0941176 0 0 0 0 0.156863 0 0 0 0.1 0"/><feBlend in2="effect1_dropShadow_91_28936" result="effect2_dropShadow_91_28936"/><feBlend in="SourceGraphic" in2="effect2_dropShadow_91_28936" result="shape"/></filter><clipPath id="clip0_91_28936"><rect width="36" height="24" x="3" y="2" fill="white" rx="2"/></clipPath></defs></svg>

<svg xmlns="http://www.w3.org/2000/svg" fill="none" aria-hidden="true" viewBox="0 0 42 30"><g filter="url(#a)"><g clip-path="url(#b)"><mask id="c" width="36" height="24" x="3" y="2" maskUnits="userSpaceOnUse" style="mask-type:alpha"><path fill="#fff" d="M3 2h36v24H3z"/></mask><g fill-rule="evenodd" clip-rule="evenodd" mask="url(#c)"><path fill="#E31D1C" d="M3 2h36v24H3V2Z"/><path fill="#FECA00" d="m19.893 6.548-1.137.61.26-1.19-.947-.89 1.282-.049.542-1.11.542 1.11h1.28l-.945.94.284 1.19-1.161-.61Zm-8.998 5.059-3.241 1.551.74-3.026-2.7-2.265 3.655-.123 1.546-2.826 1.546 2.826h3.648l-2.692 2.388.81 3.026-3.312-1.55Zm11.248-1.059-1.137.61.26-1.19-.947-.89 1.282-.049.542-1.11.542 1.11h1.28l-.945.94.284 1.19-1.161-.61Zm-1.125 4-1.137.61.26-1.19-.947-.89 1.282-.049.542-1.11.542 1.11h1.28l-.945.94.284 1.19-1.161-.61Zm-3.375 3-1.137.61.26-1.19-.947-.89 1.282-.049.542-1.11.542 1.11h1.28l-.945.94.284 1.19-1.161-.61Z"/></g></g></g><defs><clipPath id="b"><rect width="36" height="24" x="3" y="2" fill="#fff" rx="2"/></clipPath><filter id="a" width="42" height="30" x="0" y="0" color-interpolation-filters="sRGB" filterUnits="userSpaceOnUse"><feFlood flood-opacity="0" result="BackgroundImageFix"/><feColorMatrix in="SourceAlpha" result="hardAlpha" values="0 0 0 0 0 0 0 0 0 0 0 0 0 0 0 0 0 0 127 0"/><feOffset dy="1"/><feGaussianBlur stdDeviation="1"/><feColorMatrix values="0 0 0 0 0.0627451 0 0 0 0 0.0941176 0 0 0 0 0.156863 0 0 0 0.06 0"/><feBlend in2="BackgroundImageFix" result="effect1_dropShadow_91_28936"/><feColorMatrix in="SourceAlpha" result="hardAlpha" values="0 0 0 0 0 0 0 0 0 0 0 0 0 0 0 0 0 0 127 0"/><feOffset dy="1"/><feGaussianBlur stdDeviation="1.5"/><feColorMatrix values="0 0 0 0 0.0627451 0 0 0 0 0.0941176 0 0 0 0 0.156863 0 0 0 0.1 0"/><feBlend in2="effect1_dropShadow_91_28936" result="effect2_dropShadow_91_28936"/><feBlend in="SourceGraphic" in2="effect2_dropShadow_91_28936" result="shape"/></filter></defs></svg>
